X: 66
T: No_59_Song_Used_in_Tratment_of_Sick_(h).krn
N: Derived from No_59_Song_Used_in_Tratment_of_Sick_(h).krn
%%abc-version 2.0
%%abcx-abcm2ps-target-version 5.9.1 (29 Sep 2008)
%%abc-creator hum2abc beta
%%abcx-conversion-date 2019/03/15 08:36:49
%%humdrum-veritas 31760817
%%humdrum-veritas-data 1382453747
%%linebreak <none>
%%barnumbers 0
L: 1/8
M: 2/4
K: G clef=bass
D, [I:setbarnb 1]| 
B,3A, ||  
[M:3/4]A,3E,/D,/D,2 | 
A,4-A,E,/D,/ ||  
[M:2/4]A,3/E,/ A,3/E,/ ||  
[M:3/4]D,2D,3D, ||  
[M:2/4]D,3D, | 
B,3A, | 
A,3E,/D,/ | 
D,4 | 
A,G, A,E,/D,/ | 
D,4 | 
D,4 |]  



